16x16/apps/lazpaint.svg

<svg height="16" width="16" xmlns="http://www.w3.org/2000/svg"><path d="m8 0c-4.444 0-8 3.556-8 8s3.556 8 8 8c.711 0 1.333-.622 1.333-1.333 0-.356-.089-.622-.355-.89-.178-.266-.356-.532-.356-.888 0-.711.622-1.333 1.334-1.333h1.6a4.401 4.401 0 0 0 4.444-4.446" fill="#b09a7c"/><path d="m2.5 8c-.8 0-1.5-.7-1.5-1.5s.7-1.5 1.5-1.5 1.5.7 1.5 1.5-.7 1.5-1.5 1.5z" fill="#f3c72f"/><path d="m5.5 5c-.8 0-1.5-.7-1.5-1.5s.7-1.5 1.5-1.5 1.5.7 1.5 1.5-.7 1.5-1.5 1.5z" fill="#327cc4"/><path d="m9.5 5c-.8 0-1.5-.7-1.5-1.5s.7-1.5 1.5-1.5 1.5.7 1.5 1.5-.7 1.5-1.5 1.5z" fill="#0e7d43"/><path d="m12.5 8c-.8 0-1.5-.7-1.5-1.5s.7-1.5 1.5-1.5 1.5.7 1.5 1.5-.7 1.5-1.5 1.5z" fill="#d94d4d"/><path d="m4.84 12.5c-1.13-1.156.664-3.382 1.79-4.321 1.16-.966 5.068-4.574 5.321-4.838.254-.263.567-.473.878-.24.304.242.153.578-.065.87-.218.29-3.11 4.685-3.862 5.967-.73 1.246-2.642 3.38-4.061 2.563z" fill="#783e26"/><path d="m3.365 14.338c-.176-.369-.304-.329-.249-.656.038-.226 1.586-2.183 1.586-2.183.249-.1.59.02.86.243.284.208.476.503.426.757 0 0-1.678 1.855-1.901 1.937-.323.119-.309-.009-.722-.098z" fill="#777"/><path d="m0 14.461c.814 1.47 2.25 1.862 3.288 1.282.807-.451.96-1.192.57-1.703-.388-.508-.849-.553-1.306-.401-.934.309-1.589 1.586-2.552.822z" fill="#62473c"/></svg>

<svg height="16" width="16" xmlns="http://www.w3.org/2000/svg">
    <path d="M8 0C3.556 0 0 3.556 0 8s3.556 8 8 8c.711 0 1.333-.622 1.333-1.333 0-.356-.089-.622-.355-.89-.178-.266-.356-.532-.356-.888 0-.711.622-1.333 1.334-1.333h1.6A4.401 4.401 0 0 0 16 7.11" fill="#b09a7c"/>
    <path d="M2.5 8C1.7 8 1 7.3 1 6.5S1.7 5 2.5 5 4 5.7 4 6.5 3.3 8 2.5 8z" fill="#f3c72f"/>
    <path d="M5.5 5C4.7 5 4 4.3 4 3.5S4.7 2 5.5 2 7 2.7 7 3.5 6.3 5 5.5 5z" fill="#327cc4"/>
    <path d="M9.5 5C8.7 5 8 4.3 8 3.5S8.7 2 9.5 2s1.5.7 1.5 1.5S10.3 5 9.5 5z" fill="#0e7d43"/>
    <path d="M12.5 8c-.8 0-1.5-.7-1.5-1.5S11.7 5 12.5 5s1.5.7 1.5 1.5S13.3 8 12.5 8z" fill="#d94d4d"/>
    <path d="M4.84 12.5c-1.13-1.156.664-3.382 1.79-4.321 1.16-.966 5.068-4.574 5.321-4.838.254-.263.567-.473.878-.24.304.242.153.578-.065.87-.218.29-3.11 4.685-3.862 5.967-.73 1.246-2.642 3.38-4.061 2.563z" fill="#783e26"/>
    <path d="M3.365 14.338c-.176-.369-.304-.329-.249-.656.038-.226 1.586-2.183 1.586-2.183.249-.1.59.02.86.243.284.208.476.503.426.757 0 0-1.678 1.855-1.901 1.937-.323.119-.309-.009-.722-.098z" fill="#777"/>
    <path d="M0 14.461c.814 1.47 2.25 1.862 3.288 1.282.807-.451.96-1.192.57-1.703-.388-.508-.849-.553-1.306-.401-.934.309-1.589 1.586-2.552.822z" fill="#62473c"/>
</svg>
